;FLAVOR:Marlin
;TIME:18828
;Filament used: 15.7823m
;Layer height: 0.2
;MINX:48.4
;MINY:67.4
;MINZ:0.3
;MAXX:161.6
;MAXY:142.6
;MAXZ:13.975
;Generated with Cura_SteamEngine 5.4.0
M82 ;absolute extrusion mode
;Profil Homepage: https://github.com/NilsRo/Cura_Anycubic_MegaS_Profile

;Slicer Information - (Support for OctoPrint Slicer Estimator)
;Slicer info:material_guid;0ff92885-617b-4144-a03c-9989872454bc
;Slicer info:material_id;generic_pla_175
;Slicer info:material_brand;Generic
;Slicer info:material_name;PLA
;Slicer info:filament_cost;[0.0]
;Slicer info:material_bed_temperature;60
;Slicer info:material_bed_temperature_layer_0;60
;Slicer info:material_print_temperature;200
;Slicer info:material_print_temperature_layer_0;205
;Slicer info:material_flow;100
;Slicer info:layer_height;0.2
;Slicer info:machine_nozzle_size;0.4
;Slicer info:wall_thickness;1.2000000000000002
;Slicer info:speed_print;50.0
;Slicer info:speed_topbottom;25.0
;Slicer info:travel_speed;100.0
;Slicer info:support;0
;Slicer info:retraction_speed;30
;Slicer info:retraction_amount;6
;Slicer info:layer_height;0.2
;Slicer info:infill_pattern;grid
;Slicer info:infill_sparse_density;25
;Slicer info:cool_fan_enabled;True
;Slicer info:cool_fan_speed;100
;Slicer info:sliced_at;Mon 01-04-2024 02:12:47
G21                                        ; metric values 
G90                                        ; absolute positioning 
M82                                        ; set extruder to absolute mode 
M900 K0                                    ; disable lin. adv. if not set in GCODE
M107                                       ; start with the fan off 
M140 S60   ; Start heating the bed 
G4 S60                                     ; wait 1 minute 
M104 S205 ; start heating the hot end 
M190 S60   ; wait for bed 
M109 S205 ; wait for hotend 
M300 S1000 P500                            ; BEEP heating done 
G28 X0 Y10 Z0                              ; move X/Y to min endstops 
M420 S1                                    ; Enable leveling 
M420 Z2.0                                  ; Set leveling fading height to 2 mm 
G0 Z0.15                                   ; lift nozzle a bit 
G92 E0                                     ; zero the extruded length 
G1 X50 E20 F500                            ; Extrude 20mm of filament in a 5cm line. 
G92 E0                                     ; zero the extruded length again 
G1 E-2 F500                                ; Retract a little 
G1 X50 F500                                ; wipe away from the filament line
G1 X100 F9000                              ; Quickly wipe away from the filament line
G92 E0
G92 E0
G1 F1800 E-6
;LAYER_COUNT:69
;LAYER:0
M106 S76.5
M205 X10 Y10
G1 F480 Z0.375
G0 F6000 X52.016 Y69.264 Z0.375
M205 X8 Y8
;TYPE:SKIRT
G1 F480 Z0.3
G1 F1800 E0
G1 F1200 X52.681 Y68.787 E0.04083
G1 X53.558 Y68.32 E0.0904
G1 X54.248 Y68.005 E0.12824
G1 X55.26 Y67.701 E0.18096
G1 X56.249 Y67.505 E0.23126
G1 X57.173 Y67.427 E0.27752
G1 X58.544 Y67.4 E0.34594
G1 X151.875 Y67.401 E5.00224
G1 X152.591 Y67.411 E5.03796
G1 X153.632 Y67.495 E5.09007
G1 X154.481 Y67.62 E5.13288
G1 X155.444 Y67.91 E5.18306
G1 X156.226 Y68.202 E5.2247
G1 X157.101 Y68.673 E5.27428
G1 X157.84 Y69.153 E5.31824
G1 X158.491 Y69.664 E5.35953
G1 X159.305 Y70.49 E5.41739
G1 X159.747 Y71.031 E5.45224
G1 X160.228 Y71.707 E5.49363
G1 X160.671 Y72.538 E5.54061
G1 X161.012 Y73.296 E5.58208
G1 X161.298 Y74.257 E5.6321
G1 X161.494 Y75.246 E5.68241
G1 X161.573 Y76.17 E5.72867
G1 X161.6 Y77.545 E5.79728
G1 X161.599 Y132.844 E8.55616
G1 X161.589 Y133.586 E8.59319
G1 X161.505 Y134.631 E8.64549
G1 X161.38 Y135.482 E8.6884
G1 X161.092 Y136.44 E8.73831
G1 X160.8 Y137.223 E8.78
G1 X160.318 Y138.116 E8.83063
G1 X159.902 Y138.78 E8.86972
G1 X159.309 Y139.506 E8.91649
G1 X158.519 Y140.308 E8.97265
G1 X157.862 Y140.829 E9.01448
G1 X157.057 Y141.353 E9.0624
G1 X156.436 Y141.683 E9.09749
G1 X155.704 Y142.012 E9.13753
G1 X154.743 Y142.298 E9.18755
G1 X153.751 Y142.495 E9.23801
G1 X152.827 Y142.573 E9.28427
G1 X151.456 Y142.6 E9.35268
G1 X58.125 Y142.599 E14.00899
G1 X57.409 Y142.589 E14.04471
G1 X56.368 Y142.505 E14.09681
G1 X55.519 Y142.38 E14.13963
G1 X54.556 Y142.09 E14.1898
G1 X53.776 Y141.799 E14.23134
G1 X52.89 Y141.321 E14.28156
G1 X52.128 Y140.824 E14.32695
G1 X51.528 Y140.349 E14.36513
G1 X50.845 Y139.695 E14.41231
G1 X50.234 Y138.943 E14.46065
G1 X49.773 Y138.292 E14.50044
G1 X49.32 Y137.442 E14.5485
G1 X49.009 Y136.763 E14.58576
G1 X48.703 Y135.746 E14.63874
G1 X48.506 Y134.754 E14.6892
G1 X48.427 Y133.83 E14.73547
G1 X48.4 Y132.455 E14.80408
G1 X48.402 Y76.737 E17.58386
G1 X48.426 Y76.222 E17.60958
G1 X48.499 Y75.338 E17.65384
G1 X48.623 Y74.51 E17.69561
G1 X48.92 Y73.529 E17.74674
G1 X49.202 Y72.779 E17.78672
G1 X49.679 Y71.89 E17.83705
G1 X50.162 Y71.146 E17.88131
G1 X50.767 Y70.404 E17.92907
G1 X51.478 Y69.705 E17.97881
G1 X52.016 Y69.264 E18.01352
M205 X10 Y10
G0 F6000 X52.27 Y69.573
M205 X8 Y8
G1 F1200 X52.869 Y69.14 E18.05039
G1 X53.724 Y68.684 E18.09874
G1 X54.414 Y68.369 E18.13658
G1 X55.338 Y68.093 E18.18469
G1 X56.283 Y67.904 E18.23277
G1 X57.207 Y67.826 E18.27903
G1 X58.544 Y67.8 E18.34575
G1 X151.87 Y67.801 E23.0018
G1 X152.559 Y67.81 E23.03618
G1 X153.6 Y67.894 E23.08828
G1 X154.366 Y68.003 E23.12688
G1 X155.329 Y68.293 E23.17706
G1 X156.037 Y68.554 E23.21471
G1 X156.884 Y69.009 E23.26267
G1 X157.593 Y69.468 E23.30481
G1 X158.244 Y69.979 E23.3461
G1 X158.995 Y70.743 E23.39955
G1 X159.437 Y71.284 E23.4344
G1 X159.875 Y71.895 E23.47191
G1 X160.318 Y72.726 E23.51889
G1 X160.629 Y73.411 E23.55642
G1 X160.906 Y74.335 E23.60455
G1 X161.095 Y75.28 E23.65263
G1 X161.174 Y76.204 E23.69889
G1 X161.2 Y77.545 E23.76581
G1 X161.199 Y132.839 E26.52444
G1 X161.19 Y133.554 E26.56011
G1 X161.106 Y134.599 E26.61242
G1 X160.997 Y135.367 E26.65112
G1 X160.709 Y136.325 E26.70102
G1 X160.448 Y137.033 E26.73867
G1 X159.978 Y137.905 E26.78809
G1 X159.592 Y138.527 E26.82461
G1 X158.999 Y139.253 E26.87138
G1 X158.27 Y139.995 E26.92327
G1 X157.643 Y140.494 E26.96325
G1 X156.869 Y141 E27.00939
G1 X156.27 Y141.319 E27.04325
G1 X155.589 Y141.629 E27.08057
G1 X154.664 Y141.906 E27.12875
G1 X153.717 Y142.096 E27.17694
G1 X152.793 Y142.174 E27.2232
G1 X151.456 Y142.2 E27.28991
G1 X58.13 Y142.199 E31.94597
G1 X57.441 Y142.19 E31.98034
G1 X56.4 Y142.106 E32.03245
G1 X55.634 Y141.997 E32.07105
G1 X54.671 Y141.707 E32.12123
G1 X53.965 Y141.447 E32.15876
G1 X53.108 Y140.986 E32.20731
G1 X52.376 Y140.51 E32.25087
G1 X51.776 Y140.035 E32.28905
G1 X51.155 Y139.442 E32.33189
G1 X50.559 Y138.71 E32.37898
G1 X50.126 Y138.104 E32.41614
G1 X49.684 Y137.275 E32.46301
G1 X49.373 Y136.596 E32.50027
G1 X49.095 Y135.667 E32.54865
G1 X48.905 Y134.72 E32.59684
G1 X48.826 Y133.796 E32.6431
G1 X48.8 Y132.455 E32.71002
G1 X48.802 Y76.755 E35.4889
G1 X48.825 Y76.254 E35.51393
G1 X48.895 Y75.395 E35.55692
G1 X49.006 Y74.626 E35.59569
G1 X49.295 Y73.668 E35.64561
G1 X49.555 Y72.968 E35.68286
G1 X50.015 Y72.108 E35.73152
G1 X50.498 Y71.364 E35.77577
G1 X51.048 Y70.689 E35.81921
G1 X51.732 Y70.014 E35.86716
G1 X52.27 Y69.573 E35.90186
M205 X10 Y10
G1 F1800 E29.90186
G1 F480 Z0.375
;MESH:Body2.3mf
G0 F6000 X81.379 Y80.082 Z0.375
M205 X8 Y8
;TYPE:WALL-INNER
G1 F480 Z0.3
G1 F1800 E35.90186
G1 F1200 X80.619 Y80.081 E35.93978
G1 X79.893 Y79.9 E35.97711
G1 X79.223 Y79.54 E36.01506
G1 X78.687 Y79.065 E36.05079
G1 X78.247 Y78.436 E36.08908
G1 X77.991 Y77.747 E36.12575
G1 X77.895 Y77.002 E36.16323
G1 X77.986 Y76.257 E36.20067
G1 X78.249 Y75.558 E36.23793
G1 X78.676 Y74.941 E36.27537
G1 X79.236 Y74.446 E36.31266
G1 X79.907 Y74.093 E36.35048
G1 F1253.3 X80.59 Y73.944 E36.38388
G1 F1307.9 X81.394 Y73.938 E36.42068
G1 F1250 X82.096 Y74.094 E36.45512
G1 F1200 X82.764 Y74.446 E36.49279
G1 X83.324 Y74.94 E36.53005
G1 X83.752 Y75.56 E36.56763
G1 X84.015 Y76.278 E36.60578
G1 X84.1 Y77 E36.64205
G1 X84.014 Y77.743 E36.67937
G1 X83.749 Y78.446 E36.71685
G1 X83.317 Y79.061 E36.75435
G1 X82.756 Y79.555 E36.79164
G1 X82.105 Y79.897 E36.82833
G1 X81.379 Y80.082 E36.8657
M205 X10 Y10
G1 F1800 E30.8657
G1 F480 Z0.375
G0 F6000 X88.763 Y80.997 Z0.375
M205 X8 Y8
G1 F480 Z0.3
G1 F1800 E36.8657
G1 F1200 X88.304 Y80.719 E36.89248
G1 X88.084 Y80.404 E36.91165
G1 X88 Y80.124 E36.92623
G1 X88.001 Y75.936 E37.13517
G1 X88.231 Y75.36 E37.16611
G1 X88.555 Y75.103 E37.18675
G1 X88.87 Y75 E37.20328
G1 X93 Y75 E37.40933
G1 X93.471 Y75.117 E37.43354
G1 X93.8 Y75.4 E37.45519
G1 X94 Y75.797 E37.47737
G1 X93.994 Y80.113 E37.69269
G1 X93.827 Y80.564 E37.71669
G1 X93.598 Y80.802 E37.73316
G1 X93.182 Y80.999 E37.75613
G1 X88.763 Y80.997 E37.97659
M205 X10 Y10
G1 F1800 E31.97659
G1 F480 Z0.375
G0 F6000 X93.6 Y75.876 Z0.375
M205 X8 Y8
G1 F480 Z0.3
G1 F1800 E37.97659
G1 F1200 X93.597 Y80.068 E38.18573
G1 X93.541 Y80.262 E38.19581
G1 X93.286 Y80.528 E38.21419
G1 X93.035 Y80.6 E38.22722
G1 X88.857 Y80.598 E38.43566
G1 X88.582 Y80.432 E38.45169
G1 X88.4 Y80.073 E38.47177
G1 X88.401 Y75.961 E38.67691
G1 X88.538 Y75.616 E38.69543
G1 X88.92 Y75.4 E38.71733
G1 X93 Y75.4 E38.92088
G1 X93.283 Y75.47 E38.93542
G1 X93.6 Y75.876 E38.96112
M205 X10 Y10
G1 F1800 E32.96112
G1 F480 Z0.375
G0 F6000 X116.521 Y80.879 Z0.375
M205 X8 Y8
G1 F480 Z0.3
G1 F1800 E38.96112
G1 F1200 X116.099 Y80.436 E38.99165
G1 X116.006 Y80.112 E39.00846
G1 X116 Y75.8 E39.22359
G1 X116.2 Y75.399 E39.24595
G1 X116.529 Y75.116 E39.2676
G1 X116.868 Y75 E39.28547
G1 X121 Y75 E39.49162
G1 X121.445 Y75.104 E39.51442
G1 X121.769 Y75.36 E39.53502
G1 X121.999 Y75.936 E39.56596
G1 X122.001 Y80.12 E39.7747
G1 X121.767 Y80.642 E39.80324
G1 X121.532 Y80.848 E39.81883
G1 X121.073 Y80.998 E39.84293
G1 X116.943 Y80.999 E40.04897
G1 X116.521 Y80.879 E40.07086
M205 X10 Y10
G1 F1800 E34.07086
G1 F480 Z0.375
G0 F6000 X121.373 Y80.471 Z0.375
M205 X8 Y8
G1 F480 Z0.3
G1 F1800 E40.07086
G1 F1200 X121.044 Y80.599 E40.08847
G1 X116.934 Y80.601 E40.29352
G1 X116.517 Y80.358 E40.3176
G1 X116.403 Y80.068 E40.33315
G1 X116.4 Y75.879 E40.54214
G1 X116.52 Y75.639 E40.55552
G1 X116.919 Y75.4 E40.57873
G1 X121 Y75.4 E40.78233
G1 X121.267 Y75.462 E40.79601
G1 X121.462 Y75.616 E40.8084
G1 X121.599 Y75.961 E40.82692
G1 X121.601 Y80.07 E41.03192
G1 X121.373 Y80.471 E41.05493
M205 X10 Y10
G1 F1800 E35.05493
G1 F480 Z0.375
G0 F6000 X129.387 Y80.08 Z0.375
M205 X8 Y8
G1 F480 Z0.3
G1 F1800 E41.05493
G1 F1200 X128.624 Y80.082 E41.093
G1 X127.89 Y79.899 E41.13074
G1 X127.244 Y79.555 E41.16725
G1 X126.683 Y79.06 E41.20458
G1 X126.251 Y78.446 E41.24204
G1 X125.986 Y77.743 E41.27952
G1 X125.9 Y77 E41.31683
G1 X125.988 Y76.249 E41.35456
G1 X126.25 Y75.557 E41.39147
G1 X126.676 Y74.941 E41.42884
G1 X127.236 Y74.446 E41.46613
G1 X127.906 Y74.093 E41.50391
G1 F1253.3 X128.59 Y73.944 E41.53735
G1 F1311.5 X129.389 Y73.938 E41.57382
G1 F1253.3 X130.095 Y74.094 E41.60836
G1 F1200 X130.764 Y74.446 E41.64608
G1 X131.324 Y74.94 E41.68333
G1 X131.751 Y75.558 E41.72081
G1 X132.014 Y76.255 E41.75798
G1 X132.105 Y77.002 E41.79552
G1 X132.009 Y77.747 E41.833
G1 X131.754 Y78.435 E41.8696
G1 X131.324 Y79.059 E41.90741
G1 X130.765 Y79.553 E41.94463
G1 X130.11 Y79.895 E41.98149
G1 X129.387 Y80.08 E42.01872
M205 X10 Y10
G0 F6000 X129.439 Y80.479
M205 X8 Y8
G1 F1200 X128.58 Y80.482 E42.06158
G1 X127.749 Y80.274 E42.10432
G1 X126.983 Y79.866 E42.14762
G1 X126.359 Y79.304 E42.18951
G1 X125.893 Y78.629 E42.23043
G1 X125.596 Y77.843 E42.27235
G1 X125.492 Y77 E42.31473
G1 X125.6 Y76.145 E42.35773
G1 X125.893 Y75.371 E42.39901
G1 X126.371 Y74.676 E42.4411
G1 X127.134 Y74.001 E42.49192
G1 X82.866 Y74.001 E44.70046
G1 X83.629 Y74.676 E44.75129
G1 X84.107 Y75.371 E44.79337
G1 X84.4 Y76.145 E44.83466
G1 X84.508 Y77 E44.87765
G1 X84.404 Y77.843 E44.92003
G1 X84.107 Y78.63 E44.962
G1 X83.639 Y79.306 E45.00301
G1 X83.017 Y79.866 E45.04477
G1 X82.238 Y80.282 E45.08883
G1 X81.425 Y80.481 E45.13059
G1 X80.565 Y80.48 E45.17349
G1 X79.776 Y80.284 E45.21405
G1 X78.998 Y79.877 E45.25786
G1 X78.382 Y79.332 E45.29889
G1 X77.887 Y78.618 E45.34224
G1 X77.591 Y77.811 E45.38512
G1 X77.492 Y77 E45.42588
G1 X77.595 Y76.16 E45.4681
G1 X77.892 Y75.372 E45.51012
G1 X78.371 Y74.676 E45.55227
G1 X79.134 Y74.001 E45.60309
G1 X57.554 Y74.001 E46.67972
G1 X57.011 Y74.054 E46.70694
G1 X56.549 Y74.193 E46.73101
G1 X55.736 Y74.736 E46.77979
G1 X55.193 Y75.549 E46.82856
G1 X55.054 Y76.01 E46.85259
G1 X55.002 Y76.545 E46.8794
G1 X55 Y133.454 E49.71861
G1 X55.054 Y133.989 E49.74543
G1 X55.193 Y134.451 E49.7695
G1 X55.737 Y135.264 E49.81831
G1 X56.549 Y135.807 E49.86704
G1 X57.01 Y135.946 E49.89106
G1 X57.545 Y135.999 E49.91788
G1 X152.446 Y136 E54.65251
G1 X152.989 Y135.946 E54.67974
G1 X153.451 Y135.807 E54.70381
G1 X154.263 Y135.264 E54.75254
G1 X154.807 Y134.451 E54.80134
G1 X154.946 Y133.99 E54.82537
G1 X154.999 Y133.455 E54.85219
G1 X154.999 Y76.546 E57.69139
G1 X154.946 Y76.011 E57.71821
G1 X154.807 Y75.549 E57.74228
G1 X154.264 Y74.736 E57.79106
G1 X153.451 Y74.193 E57.83983
G1 X152.99 Y74.054 E57.86386
G1 X152.454 Y74.002 E57.89072
G1 X130.865 Y74.001 E58.9678
G1 X131.626 Y74.673 E59.01845
G1 X132.107 Y75.371 E59.06074
G1 X132.405 Y76.16 E59.10282
G1 X132.508 Y77 E59.14504
G1 X132.405 Y77.843 E59.18741
G1 X132.099 Y78.637 E59.22987
G1 X131.625 Y79.326 E59.27159
G1 X130.99 Y79.888 E59.31389
G1 X130.223 Y80.285 E59.35698
G1 X129.439 Y80.479 E59.39728
M205 X10 Y10
G1 F1800 E53.39728
G1 F480 Z0.375
G0 F6000 X130.086 Y73.602 Z0.375
M205 X8 Y8
G1 F480 Z0.3
G1 F1800 E59.39728
G1 F1266.5 X129.3 Y73.58 E59.43445
G1 F1326 X128.559 Y73.582 E59.4679
G1 F1253.3 X127.913 Y73.602 E59.49878
G1 F1200 X82.086 Y73.601 E61.78509
G1 F1266.5 X81.3 Y73.58 E61.82226
G1 F1326 X80.559 Y73.582 E61.85572
G1 F1253.3 X79.912 Y73.601 E61.88664
G1 F1200 X57.534 Y73.601 E63.00308
G1 X56.933 Y73.66 E63.03321
G1 X56.395 Y73.822 E63.06124
G1 X55.891 Y74.093 E63.08979
G1 X55.452 Y74.452 E63.11808
G1 X55.093 Y74.891 E63.14638
G1 X54.822 Y75.395 E63.17493
G1 X54.66 Y75.932 E63.20291
G1 X54.602 Y76.526 E63.23269
G1 X54.6 Y133.474 E66.07383
G1 X54.66 Y134.067 E66.10357
G1 X54.822 Y134.605 E66.1316
G1 X55.093 Y135.108 E66.16011
G1 X55.452 Y135.548 E66.18844
G1 X55.892 Y135.907 E66.21677
G1 X56.395 Y136.178 E66.24527
G1 X56.932 Y136.34 E66.27326
G1 X57.526 Y136.399 E66.30304
G1 X152.466 Y136.4 E71.03961
G1 X153.067 Y136.34 E71.06975
G1 X153.605 Y136.178 E71.09778
G1 X154.108 Y135.907 E71.12628
G1 X154.548 Y135.548 E71.15461
G1 X154.907 Y135.109 E71.18291
G1 X155.178 Y134.605 E71.21146
G1 X155.34 Y134.068 E71.23944
G1 X155.399 Y133.474 E71.26922
G1 X155.399 Y76.526 E74.11037
G1 X155.34 Y75.933 E74.1401
G1 X155.178 Y75.395 E74.16813
G1 X154.907 Y74.892 E74.19663
G1 X154.548 Y74.452 E74.22497
G1 X154.108 Y74.093 E74.2533
G1 X153.605 Y73.822 E74.2818
G1 X153.068 Y73.66 E74.30979
G1 X152.474 Y73.602 E74.33956
G1 X130.086 Y73.602 E75.4565
M205 X10 Y10
G1 F1800 E69.4565
G1 F480 Z0.375
G0 F6000 X123.373 Y114.465 Z0.375
M205 X8 Y8
G1 F480 Z0.3
G1 F1800 E75.4565
G1 F1200 X122.996 Y113.934 E75.48899
G1 X123.002 Y113.695 E75.50092
G1 X122.798 Y113.819 E75.51283
G1 X122.325 Y113.792 E75.53647
G1 X122.035 Y113.657 E75.55243
G1 X121.279 Y112.968 E75.60346
G1 X120.655 Y112.199 E75.65287
G1 X120.128 Y111.289 E75.70533
G1 X119.779 Y110.384 E75.75372
G1 X119.53 Y109.263 E75.81101
G1 X119.647 Y108.844 E75.83271
G1 X119.8 Y108.608 E75.84675
G1 X120 Y108.5 E75.85809
G1 X119.8 Y108.392 E75.86943
G1 X119.647 Y108.156 E75.88346
G1 X119.559 Y107.609 E75.9111
G1 X119.777 Y106.621 E75.96158
G1 X120.138 Y105.692 E76.0113
G1 X120.631 Y104.833 E76.06071
G1 X121.259 Y104.047 E76.11091
G1 X122.061 Y103.318 E76.16498
G1 X122.393 Y103.19 E76.18273
